assets/images/tools/napkin.svg

<svg fill="none" height="108" viewBox="0 0 300 108" width="300" xmlns="http://www.w3.org/2000/svg"><g fill="#484848"><path d="m269.65 49.1929c-.904-1.5814-2.15-2.8217-3.739-3.7208-1.589-.8992-3.427-1.3437-5.504-1.3437s-3.77.4651-5.297 1.3953c-1.1.6512-1.983 1.5194-2.648 2.6149v-2.3565c0-.5684-.467-1.0335-1.038-1.0335h-3.531c-.571 0-1.039.4651-1.039 1.0335v25.8907c0 .5684.468 1.0335 1.039 1.0335h3.79c.572 0 1.039-.4651 1.039-1.0335v-15.4517c0-1.3747.26-2.5633.779-3.5658.519-1.0026 1.246-1.7571 2.181-2.2738.966-.5478 2.056-.8269 3.271-.8269s2.285.2791 3.22.8269c.965.5167 1.713 1.2712 2.232 2.2738.52.9612.779 2.1498.779 3.5658v15.4517c0 .5684.468 1.0335 1.039 1.0335h3.738c.572 0 1.039-.4651 1.039-1.0335v-17.0021c0-2.0671-.447-3.8965-1.35-5.4778z"/><path d="m238.951 44.7487h-3.791c-.573 0-1.038.4627-1.038 1.0335v25.8907c0 .5708.465 1.0335 1.038 1.0335h3.791c.574 0 1.039-.4627 1.039-1.0335v-25.8907c0-.5708-.465-1.0335-1.039-1.0335z"/><path d="m219.489 56.645c-.26-.4031-.218-.9302.114-1.2713l8.392-8.8783c.623-.6614.155-1.7363-.759-1.7363h-4.476c-.28 0-.55.1137-.747.31l-11.476 11.8033v-22.2525c0-.5685-.468-1.0336-1.039-1.0336h-3.79c-.572 0-1.039.4651-1.039 1.0336v37.053c0 .5685.467 1.0336 1.039 1.0336h3.79c.571 0 1.039-.4651 1.039-1.0336v-7.4519l4.216-4.4547 8.298 12.4854c.187.2894.519.4651.862.4651h4.268c.821 0 1.319-.9095.862-1.602l-9.554-14.4595z"/><path d="m192.041 46.0405c-2.109-1.2713-4.497-1.9121-7.166-1.9121-2.212 0-4.186.4445-5.92 1.3437-1.381.7131-2.534 1.664-3.479 2.8319v-2.5219c0-.5684-.467-1.0335-1.038-1.0335h-3.531c-.572 0-1.039.4651-1.039 1.0335v36.2263c0 .5684.467 1.0335 1.039 1.0335h3.79c.571 0 1.039-.4651 1.039-1.0335v-12.5474c.851 1.0439 1.911 1.881 3.167 2.5218 1.797.8992 3.791 1.3437 5.972 1.3437 2.7 0 5.109-.6408 7.218-1.9121 2.108-1.3126 3.769-3.0697 4.985-5.2712 1.246-2.2014 1.869-4.682 1.869-7.4416s-.623-5.2401-1.869-7.4416c-1.216-2.2015-2.888-3.9482-5.037-5.2195zm-.312 17.4155c-.727 1.3746-1.734 2.4599-3.012 3.2557-1.277.7958-2.752 1.1886-4.413 1.1886-1.662 0-3.095-.3928-4.414-1.1886-1.278-.7958-2.306-1.8811-3.064-3.2557-.727-1.416-1.09-2.9973-1.09-4.7544 0-1.757.363-3.328 1.09-4.7027.758-1.3746 1.786-2.4599 3.064-3.2557 1.319-.7958 2.783-1.1886 4.414-1.1886 1.63 0 3.136.3928 4.413 1.1886 1.278.7958 2.285 1.8811 3.012 3.2557.758 1.3747 1.142 2.9457 1.142 4.7027 0 1.7571-.384 3.3384-1.142 4.7544z"/><path d="m157.561 45.3687c-1.692-.8269-3.655-1.2403-5.867-1.2403-1.766 0-3.448.2894-5.037.8786-1.558.5891-2.929 1.4159-4.102 2.4805-.925.8165-1.652 1.7364-2.171 2.7699-.239.4755-.01 1.0336.467 1.2713l3.064 1.5193c.53.2688 1.174.0207 1.485-.4754.519-.8372 1.205-1.5503 2.036-2.1291 1.173-.8269 2.544-1.2403 4.102-1.2403 1.693 0 3.043.4444 4.05 1.3436 1.039.8579 1.558 1.9845 1.558 3.3591v1.1472c-.125-.0206-.249-.0413-.374-.0206l-8.557 1.4056c-2.15.3411-3.926.9302-5.349 1.7571-1.423.8268-2.472 1.8397-3.167 3.049-.655 1.2092-.987 2.5632-.987 4.0825 0 1.6227.395 3.0283 1.194 4.2376.8 1.1679 1.901 2.0981 3.324 2.7906 1.454.6512 3.136.9819 5.036.9819 1.589 0 3.033-.2274 4.31-.6718 1.319-.4444 2.472-1.0852 3.479-1.9121.499-.3927.935-.8372 1.351-1.3126v2.2428c0 .5685.467 1.0336 1.038 1.0336h3.531c.571 0 1.039-.4651 1.039-1.0336v-17.7772c0-1.9328-.488-3.6175-1.454-5.0644-.935-1.478-2.264-2.6356-3.999-3.4625zm-.415 15.7101c0 1.416-.332 2.7079-.987 3.8758-.654 1.137-1.589 2.0465-2.804 2.739-1.173.6925-2.565 1.0335-4.154 1.0335-1.277 0-2.337-.3307-3.167-.9818-.8-.6925-1.195-1.5711-1.195-2.6356 0-1.0646.364-1.9948 1.091-2.6873.727-.7235 1.869-1.2196 3.427-1.4986l7.758-1.354s.021 0 .031-.0103z"/><path d="m131.38 34.2065h-3.998c-.572 0-1.039.4651-1.039 1.0336v25.5702l-19.057-26.18c-.197-.2687-.509-.4238-.841-.4238h-3.365c-.571 0-1.039.4651-1.039 1.0336v36.4329c0 .5685.468 1.0336 1.039 1.0336h4.05c.571 0 1.039-.4651 1.039-1.0336v-25.8803l19.005 26.4798c.197.2687.509.4341.841.4341h3.355c.571 0 1.038-.4651 1.038-1.0336v-36.4329c0-.5685-.467-1.0336-1.038-1.0336z"/><path d="m44.578 89.4628c.4154 1.54 2.3471 2.0568 3.4791.9302l29.5669-29.4461-35.2685 20.2578 2.2225 8.2684z"/><path d="m32.1156 22.2805c-1.3813-.7959-3.1156.1964-3.1156 1.788v17.9013l18.6832-10.7387z"/><path d="m53.2393 34.4351-24.2393 13.922v14.0564l36.4524-20.9502z"/><path d="m80.0957 49.8874-9.0871-5.2298-42.0086 24.144v10.4906c0 1.5503 1.6305 2.5115 3.0014 1.8397l48.0943-27.658c1.3812-.7959 1.3812-2.7803 0-3.5761z"/><path d="m237.061 40.6765c1.967 0 3.562-1.5872 3.562-3.5451s-1.595-3.5451-3.562-3.5451c-1.968 0-3.562 1.5872-3.562 3.5451s1.594 3.5451 3.562 3.5451z"/><path clip-rule="evenodd" d="m231 79c-1.657 0-3 1.3431-3 3v14c0 1.6569 1.343 3 3 3h37c1.657 0 3-1.3431 3-3v-14c0-1.6569-1.343-3-3-3zm1.47 2.986v13.014h1.854v-1.224c.252.324 1.206 1.458 3.024 1.458 2.682 0 4.59-2.034 4.59-4.914 0-2.898-1.782-4.95-4.464-4.95-1.782 0-2.79 1.08-3.042 1.494v-4.878zm4.68 11.52c-1.728 0-2.79-1.44-2.79-3.168 0-2.052 1.242-3.222 2.808-3.222 1.638 0 2.79 1.332 2.79 3.222 0 1.926-1.206 3.168-2.808 3.168zm10.786-8.136c-2.574 0-4.572 2.052-4.572 4.968 0 2.844 1.944 4.896 4.878 4.896 2.232 0 3.474-1.278 3.924-2.052l-1.296-.972c-.36.522-1.17 1.314-2.592 1.314-1.674 0-2.88-1.08-2.916-2.754h7.074c.018-.162.018-.324.018-.486 0-2.952-1.674-4.914-4.518-4.914zm2.52 4.05h-5.022c.126-1.476 1.17-2.412 2.52-2.412s2.43.864 2.502 2.412zm4.095-3.816v-1.962h1.944v1.962h1.908v1.62h-1.908v4.374c0 1.458.558 1.782 1.602 1.782.162 0 .378-.018.378-.018v1.692s-.342.072-.954.072c-2.286 0-2.97-1.53-2.97-3.834v-4.068h-1.044v-1.62zm8.918 3.402c-2.16 0-3.636 1.278-3.636 3.096 0 1.89 1.566 3.132 3.546 3.132 1.17 0 1.926-.396 2.412-.936l.162.702h1.71v-6.066c0-2.052-.954-3.564-3.744-3.564-1.566 0-2.826.594-3.582 1.08l.756 1.368c.684-.378 1.584-.738 2.628-.738 1.242 0 1.998.648 1.998 1.728v.882c-.36-.324-1.17-.684-2.25-.684zm.324 4.662c-1.188 0-1.998-.684-1.998-1.62s.792-1.62 1.98-1.62 1.998.63 1.998 1.62c0 .972-.828 1.62-1.98 1.62z" fill-rule="evenodd" opacity=".4"/></g></svg>

<svg width="300" height="108" viewBox="0 0 300 108" fill="none" xmlns="http://www.w3.org/2000/svg">
<path d="M269.65 49.1929C268.746 47.6115 267.5 46.3712 265.911 45.4721C264.322 44.5729 262.484 44.1284 260.407 44.1284C258.33 44.1284 256.637 44.5935 255.11 45.5237C254.01 46.1749 253.127 47.0431 252.462 48.1386V45.7821C252.462 45.2137 251.995 44.7486 251.424 44.7486H247.893C247.322 44.7486 246.854 45.2137 246.854 45.7821V71.6728C246.854 72.2412 247.322 72.7063 247.893 72.7063H251.683C252.255 72.7063 252.722 72.2412 252.722 71.6728V56.2211C252.722 54.8464 252.982 53.6578 253.501 52.6553C254.02 51.6527 254.747 50.8982 255.682 50.3815C256.648 49.8337 257.738 49.5546 258.953 49.5546C260.168 49.5546 261.238 49.8337 262.173 50.3815C263.138 50.8982 263.886 51.6527 264.405 52.6553C264.925 53.6165 265.184 54.8051 265.184 56.2211V71.6728C265.184 72.2412 265.652 72.7063 266.223 72.7063H269.961C270.533 72.7063 271 72.2412 271 71.6728V54.6707C271 52.6036 270.553 50.7742 269.65 49.1929Z" fill="#484848"/>
<path d="M238.951 44.7487H235.16C234.587 44.7487 234.122 45.2114 234.122 45.7822V71.6729C234.122 72.2437 234.587 72.7064 235.16 72.7064H238.951C239.525 72.7064 239.99 72.2437 239.99 71.6729V45.7822C239.99 45.2114 239.525 44.7487 238.951 44.7487Z" fill="#484848"/>
<path d="M219.489 56.645C219.229 56.2419 219.271 55.7148 219.603 55.3737L227.995 46.4954C228.618 45.834 228.15 44.7591 227.236 44.7591H222.76C222.48 44.7591 222.21 44.8728 222.013 45.0691L210.537 56.8724V34.6199C210.537 34.0514 210.069 33.5863 209.498 33.5863H205.708C205.136 33.5863 204.669 34.0514 204.669 34.6199V71.6729C204.669 72.2414 205.136 72.7065 205.708 72.7065H209.498C210.069 72.7065 210.537 72.2414 210.537 71.6729V64.221L214.753 59.7663L223.051 72.2517C223.238 72.5411 223.57 72.7168 223.913 72.7168H228.181C229.002 72.7168 229.5 71.8073 229.043 71.1148L219.489 56.6553V56.645Z" fill="#484848"/>
<path d="M192.041 46.0405C189.932 44.7692 187.544 44.1284 184.875 44.1284C182.663 44.1284 180.689 44.5729 178.955 45.4721C177.574 46.1852 176.421 47.1361 175.476 48.304V45.7821C175.476 45.2137 175.009 44.7486 174.438 44.7486H170.907C170.335 44.7486 169.868 45.2137 169.868 45.7821V82.0084C169.868 82.5768 170.335 83.0419 170.907 83.0419H174.697C175.268 83.0419 175.736 82.5768 175.736 82.0084V69.461C176.587 70.5049 177.647 71.342 178.903 71.9828C180.7 72.882 182.694 73.3265 184.875 73.3265C187.575 73.3265 189.984 72.6857 192.093 71.4144C194.201 70.1018 195.862 68.3447 197.078 66.1432C198.324 63.9418 198.947 61.4612 198.947 58.7016C198.947 55.942 198.324 53.4615 197.078 51.26C195.862 49.0585 194.19 47.3118 192.041 46.0405ZM191.729 63.456C191.002 64.8306 189.995 65.9159 188.717 66.7117C187.44 67.5075 185.965 67.9003 184.304 67.9003C182.642 67.9003 181.209 67.5075 179.89 66.7117C178.612 65.9159 177.584 64.8306 176.826 63.456C176.099 62.04 175.736 60.4587 175.736 58.7016C175.736 56.9446 176.099 55.3736 176.826 53.9989C177.584 52.6243 178.612 51.539 179.89 50.7432C181.209 49.9474 182.673 49.5546 184.304 49.5546C185.934 49.5546 187.44 49.9474 188.717 50.7432C189.995 51.539 191.002 52.6243 191.729 53.9989C192.487 55.3736 192.871 56.9446 192.871 58.7016C192.871 60.4587 192.487 62.04 191.729 63.456Z" fill="#484848"/>
<path d="M157.561 45.3687C155.869 44.5418 153.906 44.1284 151.694 44.1284C149.928 44.1284 148.246 44.4178 146.657 45.007C145.099 45.5961 143.728 46.4229 142.555 47.4875C141.63 48.304 140.903 49.2239 140.384 50.2574C140.145 50.7329 140.374 51.291 140.851 51.5287L143.915 53.048C144.445 53.3168 145.089 53.0687 145.4 52.5726C145.919 51.7354 146.605 51.0223 147.436 50.4435C148.609 49.6166 149.98 49.2032 151.538 49.2032C153.231 49.2032 154.581 49.6476 155.588 50.5468C156.627 51.4047 157.146 52.5313 157.146 53.9059V55.0531C157.021 55.0325 156.897 55.0118 156.772 55.0325L148.215 56.4381C146.065 56.7792 144.289 57.3683 142.866 58.1952C141.443 59.022 140.394 60.0349 139.699 61.2442C139.044 62.4534 138.712 63.8074 138.712 65.3267C138.712 66.9494 139.107 68.355 139.906 69.5643C140.706 70.7322 141.807 71.6624 143.23 72.3549C144.684 73.0061 146.366 73.3368 148.266 73.3368C149.855 73.3368 151.299 73.1094 152.576 72.665C153.895 72.2206 155.048 71.5798 156.055 70.7529C156.554 70.3602 156.99 69.9157 157.406 69.4403V71.6831C157.406 72.2516 157.873 72.7167 158.444 72.7167H161.975C162.546 72.7167 163.014 72.2516 163.014 71.6831V53.9059C163.014 51.9731 162.526 50.2884 161.56 48.8415C160.625 47.3635 159.296 46.2059 157.561 45.379V45.3687ZM157.146 61.0788C157.146 62.4948 156.814 63.7867 156.159 64.9546C155.505 66.0916 154.57 67.0011 153.355 67.6936C152.182 68.3861 150.79 68.7271 149.201 68.7271C147.924 68.7271 146.864 68.3964 146.034 67.7453C145.234 67.0528 144.839 66.1742 144.839 65.1097C144.839 64.0451 145.203 63.1149 145.93 62.4224C146.657 61.6989 147.799 61.2028 149.357 60.9238L157.115 59.5698C157.115 59.5698 157.136 59.5698 157.146 59.5595V61.0788Z" fill="#484848"/>
<path d="M131.38 34.2065H127.382C126.81 34.2065 126.343 34.6716 126.343 35.2401V60.8103L107.286 34.6303C107.089 34.3616 106.777 34.2065 106.445 34.2065H103.08C102.509 34.2065 102.041 34.6716 102.041 35.2401V71.673C102.041 72.2415 102.509 72.7066 103.08 72.7066H107.13C107.701 72.7066 108.169 72.2415 108.169 71.673V45.7927L127.174 72.2725C127.371 72.5412 127.683 72.7066 128.015 72.7066H131.37C131.941 72.7066 132.408 72.2415 132.408 71.673V35.2401C132.408 34.6716 131.941 34.2065 131.37 34.2065H131.38Z" fill="#484848"/>
<path d="M44.578 89.4628C44.9934 91.0028 46.9251 91.5196 48.0571 90.393L77.624 60.9469L42.3555 81.2047L44.578 89.4731V89.4628Z" fill="#484848"/>
<path d="M32.1156 22.2805C30.7343 21.4846 29 22.4769 29 24.0685V41.9698L47.6832 31.2311L32.1156 22.2805Z" fill="#484848"/>
<path d="M53.2393 34.4351L29 48.3571V62.4135L65.4524 41.4633L53.2393 34.4351Z" fill="#484848"/>
<path d="M80.0957 49.8874L71.0086 44.6576L29 68.8016V79.2922C29 80.8425 30.6305 81.8037 32.0014 81.1319L80.0957 53.4739C81.4769 52.678 81.4769 50.6936 80.0957 49.8978V49.8874Z" fill="#484848"/>
<path d="M237.061 40.6765C239.028 40.6765 240.623 39.0893 240.623 37.1314C240.623 35.1735 239.028 33.5863 237.061 33.5863C235.093 33.5863 233.499 35.1735 233.499 37.1314C233.499 39.0893 235.093 40.6765 237.061 40.6765Z" fill="#484848"/>
<path opacity="0.4" fill-rule="evenodd" clip-rule="evenodd" d="M231 79C229.343 79 228 80.3431 228 82V96C228 97.6569 229.343 99 231 99H268C269.657 99 271 97.6569 271 96V82C271 80.3431 269.657 79 268 79H231ZM232.47 81.986V95H234.324V93.776C234.576 94.1 235.53 95.234 237.348 95.234C240.03 95.234 241.938 93.2 241.938 90.32C241.938 87.422 240.156 85.37 237.474 85.37C235.692 85.37 234.684 86.45 234.432 86.864V81.986H232.47ZM237.15 93.506C235.422 93.506 234.36 92.066 234.36 90.338C234.36 88.286 235.602 87.116 237.168 87.116C238.806 87.116 239.958 88.448 239.958 90.338C239.958 92.264 238.752 93.506 237.15 93.506ZM247.936 85.37C245.362 85.37 243.364 87.422 243.364 90.338C243.364 93.182 245.308 95.234 248.242 95.234C250.474 95.234 251.716 93.956 252.166 93.182L250.87 92.21C250.51 92.732 249.7 93.524 248.278 93.524C246.604 93.524 245.398 92.444 245.362 90.77H252.436C252.454 90.608 252.454 90.446 252.454 90.284C252.454 87.332 250.78 85.37 247.936 85.37ZM250.456 89.42H245.434C245.56 87.944 246.604 87.008 247.954 87.008C249.304 87.008 250.384 87.872 250.456 89.42ZM254.551 85.604V83.642H256.495V85.604H258.403V87.224H256.495V91.598C256.495 93.056 257.053 93.38 258.097 93.38C258.259 93.38 258.475 93.362 258.475 93.362V95.054C258.475 95.054 258.133 95.126 257.521 95.126C255.235 95.126 254.551 93.596 254.551 91.292V87.224H253.507V85.604H254.551ZM263.469 89.006C261.309 89.006 259.833 90.284 259.833 92.102C259.833 93.992 261.399 95.234 263.379 95.234C264.549 95.234 265.305 94.838 265.791 94.298L265.953 95H267.663V88.934C267.663 86.882 266.709 85.37 263.919 85.37C262.353 85.37 261.093 85.964 260.337 86.45L261.093 87.818C261.777 87.44 262.677 87.08 263.721 87.08C264.963 87.08 265.719 87.728 265.719 88.808V89.69C265.359 89.366 264.549 89.006 263.469 89.006ZM263.793 93.668C262.605 93.668 261.795 92.984 261.795 92.048C261.795 91.112 262.587 90.428 263.775 90.428C264.963 90.428 265.773 91.058 265.773 92.048C265.773 93.02 264.945 93.668 263.793 93.668Z" fill="#484848"/>
</svg>
